symbols/web/nest_cam_iq/materialsymbolsoutlined/nest_cam_iq_wght600gradN25_48px.svg

<svg xmlns="http://www.w3.org/2000/svg" height="48" width="48"><path d="M16.65 45.05q-1.7 0-2.8-1.1-1.1-1.1-1.1-2.75h9.35v-9.35q-5.35-.9-8.875-4.75Q9.7 23.25 9.7 17.7q0-6 4.15-10.15T24 3.4q6 0 10.15 4.15T38.3 17.7q0 5.55-3.525 9.4-3.525 3.85-8.825 4.75v9.35h9.3q0 1.65-1.1 2.75t-2.75 1.1ZM24 28.1q4.35 0 7.4-3.025 3.05-3.025 3.05-7.375t-3.05-7.4q-3.05-3.05-7.35-3.05-4.4 0-7.45 3.05t-3.05 7.35q0 4.35 3.05 7.4 3.05 3.05 7.4 3.05Zm0-5.65q-1.95 0-3.35-1.4-1.4-1.4-1.4-3.4 0-1.95 1.4-3.35 1.4-1.4 3.35-1.4 1.95 0 3.35 1.4 1.4 1.4 1.4 3.4 0 1.95-1.4 3.35-1.4 1.4-3.35 1.4Z"/></svg>

<svg xmlns="http://www.w3.org/2000/svg" height="48" width="48"><path d="M16.65 45.05Q14.95 45.05 13.85 43.95Q12.75 42.85 12.75 41.2H22.1V31.85Q16.75 30.95 13.225 27.1Q9.7 23.25 9.7 17.7Q9.7 11.7 13.85 7.55Q18 3.4 24 3.4Q30 3.4 34.15 7.55Q38.3 11.7 38.3 17.7Q38.3 23.25 34.775 27.1Q31.25 30.95 25.95 31.85V41.2H35.25Q35.25 42.85 34.15 43.95Q33.05 45.05 31.4 45.05ZM24 28.1Q28.35 28.1 31.4 25.075Q34.45 22.05 34.45 17.7Q34.45 13.35 31.4 10.3Q28.35 7.25 24.05 7.25Q19.65 7.25 16.6 10.3Q13.55 13.35 13.55 17.65Q13.55 22 16.6 25.05Q19.65 28.1 24 28.1ZM24 22.45Q22.05 22.45 20.65 21.05Q19.25 19.65 19.25 17.65Q19.25 15.7 20.65 14.3Q22.05 12.9 24 12.9Q25.95 12.9 27.35 14.3Q28.75 15.7 28.75 17.7Q28.75 19.65 27.35 21.05Q25.95 22.45 24 22.45Z"/></svg>
